X:1
T:Old Black Joe
M:4/4
L:1/4
K:F
 F2 A3/2 B/2| c3 c/2c/2| d f e d| c4| F2 A3/2 B/2| c3 c/2c/2| d c B A|\
 G4| F2 A3/2 B/2| c3 c/2c/2| d f e d| c3 f| e3/2 f/2 g e| f d c d|\
 A2 G2| F3 c| A/2 c3/2- c c| A/2 c3/2- c c/2c/2| d f e d| c3 f| e3/2 f/2 g e|\
 f d c d| A2 G2| F4|
